X: 10
T: Jump At The Sun
R: jig
M: 6/8
L: 1/8
K: Dmin
D>FA ^G2A|D>FA ^G2A|dAA dAA|~B2G FGE|D>FA ^G2A|D>FA ^G2A|dAA BAG|FGE D2A:||:d2 d2 ef|e3 gfe|d2d2ef|e3 ABA|dAA d ef|e3 gfe|dAA BAG|FGE D2A:|


Tune 736	Setting 21017

